tools/download-figma-icons/icons/outlined-medium/solar.svg

<svg width="24" height="24" viewBox="0 0 24 24" fill="none" xmlns="http://www.w3.org/2000/svg">
<path fill-rule="evenodd" clip-rule="evenodd" d="M12.09 18.7499C8.3678 18.7499 5.34007 15.7222 5.34007 11.9999C5.34007 8.27771 8.3678 5.24997 12.09 5.24997C15.8123 5.24997 18.84 8.27771 18.84 11.9999C18.84 15.7222 15.8123 18.7499 12.09 18.7499ZM23.25 11.2499H20.3018C20.145 9.5152 19.4498 7.93571 18.3833 6.67722L20.4855 4.57573C20.7788 4.28248 20.7788 3.80773 20.4855 3.51523C20.193 3.22198 19.7183 3.22198 19.425 3.51523L17.3168 5.62272C16.0523 4.58473 14.475 3.92098 12.7501 3.78373V0.749996C12.7501 0.335248 12.4148 0 12.0001 0C11.5853 0 11.2501 0.335248 11.2501 0.749996V3.79273C9.54982 3.96523 8.00483 4.65898 6.76734 5.70672L4.5751 3.51523C4.2826 3.22198 3.80785 3.22198 3.5146 3.51523C3.22211 3.80773 3.22211 4.28248 3.5146 4.57573L5.71284 6.77322C4.69285 8.01521 4.03135 9.5602 3.87835 11.2499H0.750118C0.33537 11.2499 0.00012207 11.5852 0.00012207 11.9999C0.00012207 12.4147 0.33537 12.7499 0.750118 12.7499H3.87835C4.03135 14.4397 4.69285 15.9839 5.71284 17.2267L3.5146 19.4242C3.22211 19.7174 3.22211 20.1921 3.5146 20.4846C3.6616 20.6316 3.8536 20.7044 4.04485 20.7044C4.23685 20.7044 4.42885 20.6316 4.5751 20.4846L6.76734 18.2932C8.00483 19.3409 9.54982 20.0346 11.2501 20.2071V23.2499C11.2501 23.6646 11.5853 23.9999 12.0001 23.9999C12.4148 23.9999 12.7501 23.6646 12.7501 23.2499V20.2161C14.475 20.0789 16.0523 19.4152 17.3168 18.3772L19.425 20.4846C19.572 20.6316 19.7633 20.7044 19.9553 20.7044C20.1473 20.7044 20.3393 20.6316 20.4855 20.4846C20.7788 20.1921 20.7788 19.7174 20.4855 19.4242L18.3833 17.3227C19.4498 16.0642 20.145 14.4847 20.3018 12.7499H23.25C23.6648 12.7499 24 12.4147 24 11.9999C24 11.5852 23.6648 11.2499 23.25 11.2499Z" fill="black"/>
</svg>

<svg width="24" height="24" viewBox="0 0 24 24" fill="none" xmlns="http://www.w3.org/2000/svg"><path fill-rule="evenodd" clip-rule="evenodd" d="M12.09 18.75A6.757 6.757 0 0 1 5.34 12a6.757 6.757 0 0 1 6.75-6.75A6.757 6.757 0 0 1 18.84 12a6.757 6.757 0 0 1-6.75 6.75Zm11.16-7.5h-2.948a8.202 8.202 0 0 0-1.919-4.573l2.102-2.101a.75.75 0 1 0-1.06-1.06l-2.108 2.107a8.206 8.206 0 0 0-4.567-1.84V.75a.75.75 0 1 0-1.5 0v3.043a8.21 8.21 0 0 0-4.483 1.914L4.575 3.515a.75.75 0 1 0-1.06 1.06l2.198 2.198a8.208 8.208 0 0 0-1.835 4.477H.75a.75.75 0 1 0 0 1.5h3.128a8.21 8.21 0 0 0 1.835 4.477l-2.198 2.197a.75.75 0 0 0 1.06 1.06l2.192-2.19a8.21 8.21 0 0 0 4.483 1.913v3.043a.75.75 0 1 0 1.5 0v-3.034a8.206 8.206 0 0 0 4.567-1.839l2.108 2.108a.746.746 0 0 0 1.06 0 .749.749 0 0 0 0-1.06l-2.102-2.102a8.202 8.202 0 0 0 1.919-4.573h2.948a.75.75 0 1 0 0-1.5Z" fill="currentColor"/></svg>
